X:1
T:Pange lingua gloriosi - Casini
T:#
%%score [ 1 2 3 4 ]
L:1/8
Q:1/4=200
M:none
K:C
V:1 treble nm="S" snm="S"
V:2 treble nm="A" snm="A"
V:3 treble-8 nm="T" snm="T"
V:4 bass nm="B" snm="B"
V:1
"^Giovanni Maria Casini\n(1652-1719)" D2 D2 D2 C2 F2 F2"^Pangue lingua gloriosi" G2 A2 A4 || %1
w: Pan- ge lin- gua glo- ri- o\- * si|
[Q:1/4=200] (A8 B8 | c4) A8 G4- | G4 (A6 G2) (F4 | G4 A6 G2 G4- | G2 F2 F8) E4 | F16 | z16 | %8
w: Cor\- *|* po- ris|* my\- * ste\-||* * * ri-|um,||
 F4 (G2 A2) _B4 A4- | A4 G8 ^F4 | G8 G8 | z16 | z16 | z16 | c8 d8 | (_B6 A2) G8 | (c8 _B6 A2 | %17
w: San- gui\- * nis- que|* pre- ti-|o- si,||||Quem in|mun\- * di|pre\- * *|
 G4 G4 F4 A4- | A4 A4 (A2 G2 F2 E2) | D8 z4 _B4- | B4 _B4 B4 G4 | A4 G4 G2 F2 E2 F2) | G8 z8 | %23
w: * ti- um, Fru\-|* ctus ven\- * * *|tris, fru\-|* ctus ven- tris|ge- ne- ro\- * * *|si|
 z4[Q:1/4=192] A8[Q:1/4=186] G4 |"^**"[Q:1/4=183] G4[Q:1/4=179] F4[Q:1/4=175] E4[Q:1/4=171] E4 | %25
w: Rex ef-|fu- dit gen- ti-|
[Q:1/4=170] D16 |] %26
w: um.|
V:2
 z16 z4 || z8 (D4 E4- | E4 F8 E4- | E2) D2 C8 D4 | (C8 D4) D4 | E4 D4 D4 C4 | C4 z4 C8- | %7
w: |Cor\- *||* po- ris my-|ste\- * ri-|um, my- ste- ri-|um, San\-|
 C4 (D2 E2) F4 _E4 | D4 (E2 ^F2) G4 (=F2 E2) | D4 D4 D8 | D4 D8 E4 | C4 A,4 (F6 E2 | D4 D4 C8 | %13
w: * gui\- * nis- que,|san- gui\- * nis- que *|pre- ti- o-|si, Quem in|mun- di pre\- *|* ti- um,|
 z4 G4 A8 | (F6 E2 D4) F4 | G6 F2 E6 D2 | C8 D2 E2 F4- | F4 E4 F4 z4 | F8 F8 | F8 D4 F4- | %20
w: quem in|mun\- * * di|pre\- * * *||* ti- um,|Fru- ctus|ven- tris, fru\-|
 F4 G4 F4 E4 | F2 E2) D4 (E2 D2 C2 D2) | E4 E8 D4 | C4 C4 (F4 E2 D2 | ^C2 A,2 D8) C4 | D16 |] %26
w: * ctus ven- tris|ge\- * ne- ro\- * * *|si Rex ef-|fu- dit gen\- * *|* * * ti-|um.|
V:3
 z16 z4 || z16 | (A8 B8 | c6 B2) A4 _B4- | B4 A4 (_B8- | B4 A4 G4) G4 | A4 F8 (A2 B2) | %7
w: ||Cor\- *|* * po- ris|* my- ste\-|* * * ri-|um, San- gui\- *|
 c4 _B4 A4 (B2 c2) | d4 c4 (_B2 c2) (d2 c2) | (_B2 A2 B2 G2 A4 d4) | B16 | z4 c8 d4 | %12
w: nis- que, san- gui\- *|nis- que pre\- * ti\- *|o\- * * * * *|si,|Quem in|
 (_B2 G2 B8) A4 | (G4 c6 _B2 A2 G2 | A8 _B6 A2 | G4 _B4 c6 B2 | A8 G4 A4 | _B4 c4 F8 | z16 | %19
w: mun\- * * di|pre\- * * * *||||* ti- um,||
 z4 d8 d4 | d4 _B4 d2 c2 c4- | c4 B4) c4 z4 | (c6 B2 A4) B4- | B4 (A4 d4) B4 | A12 A4 | A16 |] %26
w: Fru- ctus|ven- tris ge- ne- ro\-|* * si|Rex * * ef\-|* fu\- * dit|gen- ti-|um.|
V:4
 z16 z4 || z16 | z4 (D,8 E,4- | E,4 F,6) E,2 D,4 | (E,4 F,4) _B,,4 B,,4 | C,4 D,4 _B,,4 C,4 | %6
w: ||Cor\- *|* * po- ris|my\- * ste- ri-|um, my- ste- ri-|
 F,16 | z8 F,4 (G,2 A,2) | _B,4 A,4 G,4 D,4 | (G,8 D,8) | G,,8 G,8 | A,4 (F,6 E,2) D,4 | %12
w: um,|San- gui\- *|nis- que pre- ti-|o\- *|si, Quem|in mun\- * di|
 (G,6 F,2 E,2 C,2 F,4- | F,4) E,4 F,8- | F,8 z8 | z16 | z16 | z8 z4 F,4- | F,4 F,4 F,4 D,4- | %19
w: pre\- * * * *|* ti- um,||||Fru\-|* ctus ven- tris,|
 D,4 _B,8 B,4 | _B,4 G,4 B,4 C4 |"^** Source has F, but G seems more likely." (F,4 G,4) C,8- | %22
w: * fru- ctus|ven- tris ge- ne-|ro\- * si|
 C,8 F,4 G,4 | (A,2 G,2 F,2 E,2 D,4) E,4 | A,,12 A,,4 | D,16 |] %26
w: * Rex ef-|fu\- * * * * dit|gen- ti-|um.|

